src/assets/icons/subscribe-added.svg

<svg widh="100%" height="100%" viewBox="0 0 24 24" fill="current"
  xmlns="http://www.w3.org/2000/svg">
  <path fill-rule="evenodd" clip-rule="evenodd" d="M1.46447 15.4645C2.40215 14.5268 3.67392 14 5 14H12C13.3261 14 14.5979 14.5268 15.5355 15.4645C16.4732 16.4021 17 17.6739 17 19V21C17 21.5523 16.5523 22 16 22C15.4477 22 15 21.5523 15 21V19C15 18.2044 14.6839 17.4413 14.1213 16.8787C13.5587 16.3161 12.7956 16 12 16H5C4.20435 16 3.44129 16.3161 2.87868 16.8787C2.31607 17.4413 2 18.2044 2 19V21C2 21.5523 1.55228 22 1 22C0.447715 22 0 21.5523 0 21V19C0 17.6739 0.526784 16.4021 1.46447 15.4645Z" />
  <path fill-rule="evenodd" clip-rule="evenodd" d="M8.5 4C6.84315 4 5.5 5.34315 5.5 7C5.5 8.65685 6.84315 10 8.5 10C10.1569 10 11.5 8.65685 11.5 7C11.5 5.34315 10.1569 4 8.5 4ZM3.5 7C3.5 4.23858 5.73858 2 8.5 2C11.2614 2 13.5 4.23858 13.5 7C13.5 9.76142 11.2614 12 8.5 12C5.73858 12 3.5 9.76142 3.5 7Z" />
  <path fill-rule="evenodd" clip-rule="evenodd" d="M23.7071 8.29289C24.0976 8.68342 24.0976 9.31658 23.7071 9.70711L19.7071 13.7071C19.3166 14.0976 18.6834 14.0976 18.2929 13.7071L16.2929 11.7071C15.9024 11.3166 15.9024 10.6834 16.2929 10.2929C16.6834 9.90237 17.3166 9.90237 17.7071 10.2929L19 11.5858L22.2929 8.29289C22.6834 7.90237 23.3166 7.90237 23.7071 8.29289Z" />
</svg>

<svg xmlns="http://www.w3.org/2000/svg" fill="currentColor" viewBox="0 0 24 24">
  <path fill-rule="evenodd" d="M1.464 15.464A5 5 0 0 1 5 14h7a5 5 0 0 1 5 5v2a1 1 0 1 1-2 0v-2a3 3 0 0 0-3-3H5a3 3 0 0 0-3 3v2a1 1 0 1 1-2 0v-2a5 5 0 0 1 1.464-3.536ZM8.5 4a3 3 0 1 0 0 6 3 3 0 0 0 0-6Zm-5 3a5 5 0 1 1 10 0 5 5 0 0 1-10 0ZM23.707 8.293a1 1 0 0 1 0 1.414l-4 4a1 1 0 0 1-1.414 0l-2-2a1 1 0 0 1 1.414-1.414L19 11.586l3.293-3.293a1 1 0 0 1 1.414 0Z" clip-rule="evenodd"/>
</svg>
